Adwaita++-Dark/actions/16/kmouth-phresebook-new.svg

<svg height="16" viewBox="0 0 16 16" width="16" xmlns="http://www.w3.org/2000/svg">
  <g fill="#e6ddff">
    <path d="m5.40625 6s-1.40625.0003906-1.40625 1.4003906v4.1992184c0 .775.6363344 1.400391 1.4277344 1.400391h3.5722656l1.5 2 1.5-2h.572266s1.427734-.000391 1.427734-1.400391v-4.1992184c0-1.4-1.427734-1.4003906-1.427734-1.4003906zm3.59375 1h1v2h2v1h-2v2h-1v-2h-2v-1h2z"/>
    <path d="m3.40625 2s-1.40625.0003906-1.40625 1.4003906v4.1992188c0 .6282.4207 1.1516781 1 1.3300781v-2.5292969c0-1.4 1.40625-1.4003906 1.40625-1.4003906h7.166016s.195734.0235375.427734.0859375v-1.6855469c0-1.4-1.427734-1.4003906-1.427734-1.4003906z" opacity=".3"/>
  </g>
</svg>

<svg xmlns="http://www.w3.org/2000/svg" width="16" height="16" viewBox="0 0 16 16">
 <defs>
  <style id="current-color-scheme" type="text/css">
   .ColorScheme-Text { color:#E6DDFF; } .ColorScheme-Highlight { color:#4285f4; }
  </style>
 </defs>
 <path style="fill:currentColor" class="ColorScheme-Text" d="M 5.40625 6 C 5.40625 6 4 6.0003906 4 7.4003906 L 4 11.599609 C 4 12.374609 4.6363344 13 5.4277344 13 L 9 13 L 10.5 15 L 12 13 L 12.572266 13 C 12.572266 13 14 12.999609 14 11.599609 L 14 7.4003906 C 14 6.0003906 12.572266 6 12.572266 6 L 5.40625 6 z M 9 7 L 10 7 L 10 9 L 12 9 L 12 10 L 10 10 L 10 12 L 9 12 L 9 10 L 7 10 L 7 9 L 9 9 L 9 7 z"/>
 <path style="fill:currentColor;opacity:0.3" class="ColorScheme-Text" d="M 3.40625 2 C 3.40625 2 2 2.0003906 2 3.4003906 L 2 7.5996094 C 2 8.2278094 2.4207 8.7512875 3 8.9296875 L 3 6.4003906 C 3 5.0003906 4.40625 5 4.40625 5 L 11.572266 5 C 11.572266 5 11.768 5.0235375 12 5.0859375 L 12 3.4003906 C 12 2.0003906 10.572266 2 10.572266 2 L 3.40625 2 z"/>
</svg>
